Numix-GalliumOS/16/actions/mail-copy.svg

<?xml version="1.0" encoding="UTF-8" standalone="no"?>
<svg
   xmlns:dc="http://purl.org/dc/elements/1.1/"
   xmlns:cc="http://creativecommons.org/ns#"
   xmlns:rdf="http://www.w3.org/1999/02/22-rdf-syntax-ns#"
   xmlns:svg="http://www.w3.org/2000/svg"
   xmlns="http://www.w3.org/2000/svg"
   xmlns:sodipodi="http://sodipodi.sourceforge.net/DTD/sodipodi-0.dtd"
   xmlns:inkscape="http://www.inkscape.org/namespaces/inkscape"
   width="16"
   viewBox="0 0 4.5155557 4.5155557"
   height="16"
   id="svg2"
   version="1.1"
   inkscape:version="0.91 r"
   sodipodi:docname="mail-copy.svg">
  <metadata
     id="metadata32">
    <rdf:RDF>
      <cc:Work
         rdf:about="">
        <dc:format>image/svg+xml</dc:format>
        <dc:type
           rdf:resource="http://purl.org/dc/dcmitype/StillImage" />
      </cc:Work>
    </rdf:RDF>
  </metadata>
  <defs
     id="defs30" />
  <sodipodi:namedview
     pagecolor="#ffffff"
     bordercolor="#666666"
     borderopacity="1"
     objecttolerance="10"
     gridtolerance="10"
     guidetolerance="10"
     inkscape:pageopacity="0"
     inkscape:pageshadow="2"
     inkscape:window-width="1920"
     inkscape:window-height="1056"
     id="namedview28"
     showgrid="false"
     inkscape:zoom="29.5"
     inkscape:cx="6.1342529"
     inkscape:cy="12.438724"
     inkscape:window-x="0"
     inkscape:window-y="24"
     inkscape:window-maximized="1"
     inkscape:current-layer="svg2" />
  <path
     inkscape:connector-curvature="0"
     id="path6-4"
     d="M 0.21166656,2.3079513e-5 C -1.5630639e-7,2.3079513e-5 -1.5630639e-7,-1.745489e-6 -1.5630639e-7,0.211665 l 0,2.1166669 c 0,0.2116667 0,0.2116667 0.21166671630639,0.2116667 l 2.96333364,0 c 0.2116668,0 0.2116668,0 0.2116668,-0.2116667 0,-0.6812992 0,-1.72306565 0,-2.1166669 0,-0.211666745489 0,-0.211642145487 -0.2116668,-0.211642145487 z"
     style="fill:#1d699f;fill-opacity:1" />
  <g
     id="g8-5"
     style="fill-opacity:0.1"
     transform="matrix(0.75000007,0,0,0.75000007,-1.3457406e-7,-0.42333432)">
    <path
       inkscape:connector-curvature="0"
       id="path10-5"
       d="M 0.12347223,0.56640108 C 0.00440972,0.57961508 0,0.63687508 0,0.84829708 L 2.2577778,2.2577768 4.5155557,0.84829708 c 0,-0.281896 0,-0.281896 -0.2822223,-0.281896 l -3.95111117,0 c -0.0705556,0 -0.1190625,-0.0044 -0.15875,0 z"
       style="fill:#ffffff" />
    <path
       inkscape:connector-curvature="0"
       id="path12-5"
       d="m 4.5155557,0.84666558 -2.2577779,1.41111122 2.2577779,1.4111111 0,-2.82222232 z" />
  </g>
  <g
     style="fill:#dc322f;fill-opacity:0"
     transform="matrix(0.14967002,-0.14967002,0.14967002,0.14967002,-0.71215523,0.10993828)"
     id="g14-6">
    <path
       d="M 0.62499842,14.032613 2.039212,15.446827 5.574746,11.911293 4.1605324,10.497079 Z"
       id="path16-0"
       inkscape:connector-curvature="0" />
    <path
       d="m 1.3321052,9.0828657 5.6568544,0 0,5.6568543 z"
       id="path18-0"
       inkscape:connector-curvature="0" />
  </g>
  <g
     transform="matrix(0.75000008,0,0,0.75000008,1.1288889,1.5522172)"
     id="g4">
    <path
       style="fill:#268bd2"
       d="M 0.28222223,0.56447648 C 0,0.56447648 0,0.56444338 0,0.84666568 L 0,3.668888 c 0,0.2822222 -4.9194439e-8,0.2822222 0.28222223,0.2822222 l 3.95111117,0 c 0.2822223,0 0.2822223,0 0.2822223,-0.2822222 0,-0.9083989 0,-2.2974207 0,-2.82222232 0,-0.2822223 0,-0.2821895 -0.2822223,-0.2821895 z"
       id="path6"
       inkscape:connector-curvature="0" />
    <g
       style="fill-opacity:0.1"
       id="g8">
      <path
         style="fill:#ffffff"
         d="M 0.12347223,0.56640108 C 0.00440972,0.57961508 0,0.63687508 0,0.84829708 L 2.2577778,2.2577768 4.5155557,0.84829708 c 0,-0.281896 0,-0.281896 -0.2822223,-0.281896 l -3.95111117,0 c -0.0705556,0 -0.1190625,-0.0044 -0.15875,0 z"
         id="path10"
         inkscape:connector-curvature="0" />
      <path
         d="m 4.5155557,0.84666558 -2.2577779,1.41111122 2.2577779,1.4111111 0,-2.82222232 z"
         id="path12"
         inkscape:connector-curvature="0" />
    </g>
  </g>
  <g
     style="fill:#dc322f;fill-opacity:0"
     transform="matrix(0.14967002,-0.14967002,0.14967002,0.14967002,0.41673384,2.0854898)"
     id="g14">
    <path
       d="M 0.62499842,14.032613 2.039212,15.446827 5.574746,11.911293 4.1605324,10.497079 Z"
       id="path16"
       inkscape:connector-curvature="0" />
    <path
       d="m 1.3321052,9.0828657 5.6568544,0 0,5.6568543 z"
       id="path18"
       inkscape:connector-curvature="0" />
  </g>
</svg>

<svg xmlns="http://www.w3.org/2000/svg" width="16" viewBox="0 0 4.5155557 4.5155557" height="16">
 <path d="m 0.212 0 c -0.212 0 -0.212 0 -0.212 0.212 l 0 2.117 c 0 0.212 0 0.212 0.212 0.212 l 2.963 0 c 0.212 0 0.212 0 0.212 -0.212 0 -0.681 0 -1.723 0 -2.117 0 -0.212 0 -0.212 -0.212 -0.212 z" style="fill:#1d699f;fill-opacity:1"/>
 <g transform="matrix(0.75000007,0,0,0.75000007,-1.3457406e-7,-0.42333432)" style="fill-opacity:0.1">
  <path d="m 0.123 0.566 c -0.119 0.013 -0.123 0.07 -0.123 0.282 l 2.258 1.409 2.258 -1.409 c 0 -0.282 0 -0.282 -0.282 -0.282 l -3.951 0 c -0.071 0 -0.119 -0.004 -0.159 0 z" style="fill:#fff"/>
  <path d="m 4.516 0.847 -2.258 1.411 2.258 1.411 0 -2.822 z"/>
 </g>
 <g transform="matrix(0.14967002,-0.14967002,0.14967002,0.14967002,-0.71215523,0.10993828)" style="fill:#dc322f;fill-opacity:0">
  <path d="m 0.625 14.03 1.414 1.414 3.536 -3.536 -1.414 -1.414"/>
  <path d="m 1.332 9.08 5.657 0 0 5.657 z"/>
 </g>
 <g transform="matrix(0.75000008,0,0,0.75000008,1.1288889,1.5522172)">
  <path d="m 0.282 0.564 c -0.282 0 -0.282 0 -0.282 0.282 l 0 2.822 c 0 0.282 0 0.282 0.282 0.282 l 3.951 0 c 0.282 0 0.282 0 0.282 -0.282 0 -0.908 0 -2.297 0 -2.822 0 -0.282 0 -0.282 -0.282 -0.282 z" style="fill:#268bd2"/>
  <g style="fill-opacity:0.1">
   <path d="m 0.123 0.566 c -0.119 0.013 -0.123 0.07 -0.123 0.282 l 2.258 1.409 2.258 -1.409 c 0 -0.282 0 -0.282 -0.282 -0.282 l -3.951 0 c -0.071 0 -0.119 -0.004 -0.159 0 z" style="fill:#fff"/>
   <path d="m 4.516 0.847 -2.258 1.411 2.258 1.411 0 -2.822 z"/>
  </g>
 </g>
 <g transform="matrix(0.14967002,-0.14967002,0.14967002,0.14967002,0.41673384,2.0854898)" style="fill:#dc322f;fill-opacity:0">
  <path d="m 0.625 14.03 1.414 1.414 3.536 -3.536 -1.414 -1.414"/>
  <path d="m 1.332 9.08 5.657 0 0 5.657 z"/>
 </g>
</svg>
